X: 8379
T: Courtown Harbour
R: jig
M: 6/8
K: Dmajor
E|:F2d BAF|FAF EDE|F (3ABc dcd|BAF EAG|
F2d BAF|FAF EDE|F2D EDB,|DED D AG:|
F2E FAd|fdB AFE|DFA d2A|B2e ede|
fed edA|BdB AFE|FED EDB,|DED D AG:|

